!!!COM: Scriabin, Alexander
!!!OTL@@FR: Ironies
!!!OPR@@FR: 4 Morceaux
!!!OPS: 56
!!!ONM: 2
!!!ODT: 1908
!!!AGN: Miniature
**kern	**kern	**dynam	**kern	**dynam
*staff3	*staff2	*staff2/3	*staff1	*staff1/2
*Ipiano	*Ipiano	*	*Ipiano	*
*clefF4	*clefG2	*	*clefG2	*
*k[]	*k[]	*	*k[]	*
*C:	*C:	*	*C:	*
*M2/4	*M2/4	*	*M2/4	*
=1	=1	=1	=1	=1
8r	8a-XL	.	2r	.
8c-X 8f	8dJ 8dd	.	.	.
8D-X	8b-XL	.	.	.
8r	8e-XJ 8ee-X	.	.	.
=2	=2	=2	=2	=2
4F 4Bn 4f	8.enL 8.bn 8.een	.	2r	.
.	16anJk 16aan	.	.	.
8GGG 8GG	8a-XL 8aa-X	.	.	.
8r	8BJ 8b	.	.	.
=3	=3	=3	=3	=3
4F 4B 4f	8.e-XL 8.an 8.ee-X	.	2r	.
.	16aJk 16aa	.	.	.
8GG	8a-XL 8aa-X	.	.	.
8r	8BJ 8b	.	.	.
=4	=4	=4	=4	=4
*	*^	*	*	*
4E 4F#X 4c 4e	4a-X 4cc 4een 4aa-X	4rc	.	2r	.
*clefG2	*	*	*	*	*
4a-X 4cc 4ee	8ggL 8ggg	4ccc 4eee	.	.	.
.	8ff#XJ 8fff#X	.	.	.	.
*	*v	*v	*	*	*
*clefF4	*	*	*	*
=5	=5	=5	=5	=5
8r	8ccL	.	2r	.
8e-X 8an	8f#XJ 8ff#X	.	.	.
8Fn	8ddL	.	.	.
8r	8gJ 8gg	.	.	.
=6	=6	=6	=6	=6
4A 4d#X 4a	8.g#XL 8.dd#X 8.gg#X	.	2r	.
.	16cc#XJk 16ccc#X	.	.	.
8BBB 8BB	8ccnL 8cccn	.	.	.
8r	8d#XJ 8dd#	.	.	.
=7	=7	=7	=7	=7
4A 4d#X 4a	8.gnL 8.cc#X 8.ggn	.	2r	.
.	16cc#Jk 16ccc#X	.	.	.
4BBB 4BB	8ccnL 8cccn	.	.	.
.	8d#XJ 8dd#X	.	.	.
=8	=8	=8	=8	=8
*^	*^	*	*	*
4G#X 4e 4g#X	8A#XL	8ccL 8ccc	4ee 4gg#X	.	2r	.
.	8BJ	8bJ 8bb	.	.	.	.
4D-X 4c-X 4f	4rEE	4cc-X 4ee-X 4ggn 4eee-X	4rc	.	.	.
*v	*v	*	*	*	*	*
*	*v	*v	*	*	*
=9	=9	=9	=9	=9
8r	8a-XL	.	2r	.
8c-X 8f	8dnJ 8ddn	.	.	.
8D-X	8b-XL	.	.	.
8r	8e-XJ 8ee-X	.	.	.
=10	=10	=10	=10	=10
4F 4Bn 4f	8.enL 8.bn 8.een	.	2r	.
.	16anJk 16aan	.	.	.
8GGG 8GG	8a-XL 8aa-X	.	.	.
8r	8BJ 8b	.	.	.
=11	=11	=11	=11	=11
4F 4B 4f	8.e-XL 8.an 8.ee-X	.	2r	.
.	16aJk 16aa	.	.	.
8GG	8a-XL 8aa-X	.	.	.
8r	8BJ 8b	.	.	.
=12	=12	=12	=12	=12
*	*^	*	*	*
4E 4F#X 4c 4e	4a-X 4cc 4een 4aa-X	4rc	.	2r	.
*clefG2	*	*	*	*	*
4a-X 4cc 4ee	8ggL 8ggg	4ccc 4eee	.	.	.
.	8ff#XJ 8fff#X	.	.	.	.
*	*v	*v	*	*	*
*clefF4	*	*	*	*
=13	=13	=13	=13	=13
8r	8ccL	.	2r	.
8e-X 8an	8f#XJ 8ff#X	.	.	.
8Fn	8ddL	.	.	.
8r	8gJ 8gg	.	.	.
=14	=14	=14	=14	=14
4A 4d#X 4a	8.g#XL 8.dd#X 8.gg#X	.	2r	.
.	16cc#XJk 16ccc#X	.	.	.
8BBB 8BB	8ccnL 8cccn	.	.	.
8r	8d#XJ 8dd#	.	.	.
=15	=15	=15	=15	=15
4A 4d#X 4a	8.gnL 8.cc#X 8.ggn	.	2r	.
.	16cc#Jk 16ccc#X	.	.	.
8BBB 8BB	8ccnL 8cccn	.	.	.
8r	8d#XJ 8dd#X	.	.	.
=16	=16	=16	=16	=16
*^	*^	*	*	*
4G#X 4e 4g#X	8A#XL	8ccL 8ccc	4ee 4gg#X	.	2r	.
.	8BJ	8bJ 8bb	.	.	.	.
4D-X 4c-X 4gn	4rEE	4cc-X 4ee-X 4ggn 4eee-X	4rc	.	.	.
*v	*v	*	*	*	*	*
*	*v	*v	*	*	*
=17	=17	=17	=17	=17
8Dn 8cn 8f#X	8bL	.	2r	.
8r	8d#XJ 8dd#X	.	.	.
4GG#X 4F#X 4B#X	4d##X 4a#X 4dd##X	.	.	.
=18	=18	=18	=18	=18
4F#X 4B#X 4f#X	8.d##XL 8.a#X 8.dd##X	.	2r	.
.	16b#XJk 16bb#X	.	.	.
4CC#X 4GG#X	8a#L 8aa#X	.	.	.
.	8B#XJ 8b#	.	.	.
=19	=19	=19	=19	=19
2r	8.d##XL 8.dd##X	.	2r	.
.	16a#XJk 16aa#X	.	.	.
.	8anL 8aan	.	.	.
.	8B#XJ 8b#X	.	.	.
=20	=20	=20	=20	=20
*	*^	*	*	*
4E#X 4F##X 4c#X 4e#X	4a 4cc#X 4ee#X 4aa	4rc	.	2r	.
*clefG2	*	*	*	*	*
4a 4cc#X 4ee#X	8gg#XL 8ggg#X	4ccc#X 4eee#X	.	.	.
.	8ff##XJ 8fff##X	.	.	.	.
*	*v	*v	*	*	*
*clefF4	*	*	*	*
=21	=21	=21	=21	=21
4En 4d 4g#X	8cc#XL	.	2r	.
.	8e#XJ 8ee#X	.	.	.
4BB-X 4A-X 4d	4f#X 4ccn 4ff#X	.	.	.
=22	=22	=22	=22	=22
4A-X 4d 4a-X	8.f#XL 8.cc 8.ff#X	.	2r	.
.	16ddJk 16ddd	.	.	.
4EE-X 4BB-X	8ccL 8ccc	.	.	.
.	8dJ 8dd	.	.	.
=23	=23	=23	=23	=23
2r	8.f#XL 8.ff#X	.	2r	.
.	16ccJk 16ccc	.	.	.
.	8cc-XL 8ccc-X	.	.	.
.	8dJ 8dd	.	.	.
=24	=24	=24	=24	=24
*	*^	*	*	*
4G 4An 4e-X 4g	4cc-X 4ee-X 4gg 4ccc-X	4rc	.	2r	.
*clefG2	*	*	*	*	*
4cc-X 4ee-X 4gg	8bb-XL 8bbb-X	4eee-X 4ggg	.	.	.
.	8aaJ 8aaa	.	.	.	.
*	*v	*v	*	*	*
=25	=25	=25	=25	=25
8e-X 8dd-X 8gg	8cccnL	.	2r	.
8r	8ff-XJ 8fff-X	.	.	.
8A 8g 8cc#X	8bbnL 8fffn	.	.	.
8r	8ffnJ	.	.	.
*clefF4	*	*	*	*
=26	=26	=26	=26	=26
8F 8e-X 8a	8dddnL	.	2r	.
8r	8gg-XJ 8ggg-X	.	.	.
8BB 8A 8d#X	8ccc#XL 8gggn	.	.	.
8r	8ggnJ	.	.	.
=27	=27	=27	=27	=27
8G 8f 8b	8eeenL	.	2r	.
8r	8aa-XJ 8aaa-X	.	.	.
8C#X 8B 8e#X	8ddd#XL 8aaan	.	.	.
8r	8aanJ	.	.	.
=28	=28	=28	=28	=28
8AA 8G 8c#X	8fff#XL	.	2r	.
8r	8bb-XJ 8bbb-X	.	.	.
8DD#X 8C#X 8F##X	8eee#XL 8bbbn	.	.	.
8r	8bbnJ	.	.	.
=29	=29	=29	=29	=29
8gL 8cc#X	8ff#XL	.	2r	.
8AJ	8b-XJ 8bb-X	.	.	.
8E-X 8d-X 8g	8ffnL	.	.	.
8r	8bnJ 8bbn	.	.	.
=30	=30	=30	=30	=30
4d-X 4g 4dd-X	8.bL 8.ff 8.bb	.	2r	.
.	16ggJk 16ggg	.	.	.
8AA-X 8E-X	8ffL 8fff	.	.	.
8r	8gJ 8gg	.	.	.
=31	=31	=31	=31	=31
2r	8.bL 8.bb	.	2r	.
.	16ffJk 16fff	.	.	.
.	8ff-XL 8fff-X	.	.	.
.	8gJ 8gg	.	.	.
*clefG2	*	*	*	*
=32	=32	=32	=32	=32
*	*^	*	*	*
4c 4dn 4a-X 4cc	4ff-X 4aa-X 4ccc 4fff-X	4rc	.	2r	.
4ff-X 4aa-X 4ccc	8eee-XL 8eeee-X	4aaa-X 4cccc	.	.	.
.	8dddJ 8dddd	.	.	.	.
*clefF4	*	*	*	*	*
=33	=33	=33	=33	=33	=33
4E-X 4d-X	8.bL	4g	.	2r	.
.	16ggJk	.	.	.	.
4AAA-X 4AA-X	8ffnL	4rc	.	.	.
.	8gJ	.	.	.	.
=34	=34	=34	=34	=34	=34
4Dn 4A-X 4c	4f-X 4a-X 4cc 4ff-X	4rc	.	2r	.
*clefG2	*	*	*	*	*
4f-X 4a-X 4cc	8ee-XL 8eee-X	4aa-X 4ccc	.	.	.
.	8ddJ 8ddd	.	.	.	.
*	*v	*v	*	*	*
*clefF4	*	*	*	*
=35	=35	=35	=35	=35
8r	8a-XL	.	2r	.
8c-X 8f	8dJ 8dd	.	.	.
8D-X	8b-XL	.	.	.
8r	8e-XJ 8ee-X	.	.	.
=36	=36	=36	=36	=36
4F 4Bn 4f	8.enL 8.bn 8.een	.	2r	.
.	16anJk 16aan	.	.	.
8GGG 8GG	8a-XL 8aa-X	.	.	.
8r	8BJ 8b	.	.	.
=37	=37	=37	=37	=37
4F 4B 4f	8.e-XL 8.an 8.ee-X	.	2r	.
.	16aJk 16aa	.	.	.
8GG	8a-XL 8aa-X	.	.	.
8r	8BJ 8b	.	.	.
=38	=38	=38	=38	=38
2r	2r	.	2r	.
=39	=39	=39	=39	=39
8D-X 8c-X	8e-XL	.	2r	.
8r	8anJ 8ee-X	.	.	.
8GG 8F 8B	8aL 8b 8een	.	.	.
8r	8enJ	.	.	.
=40	=40	=40	=40	=40
*	*^	*	*	*
4E 4F#X 4c 4e	4a-X 4cc 4ee 4aa-X	4rc	.	2r	.
*clefG2	*	*	*	*	*
[4a-X [4cc [4ee	[4gg [4ggg	[4ccc [4eee	.	.	.
=41	=41	=41	=41	=41	=41
4a-] 4cc] 4ee]	8ggL] 8ggg]	4ccc] 4eee]	.	2r	.
.	8ff#XJ 8fff#X	.	.	.	.
4a-X 4cc 4ee	8ggL 8ggg	4ccc 4eee	.	.	.
.	8ff#J 8fff#	.	.	.	.
=42	=42	=42	=42	=42	=42
4a-X 4cc 4ee	8ggL 8ggg	4ccc 4eee	.	2r	.
.	8ff#XJ 8fff#X	.	.	.	.
4a- 4cc 4ee	8ggL 8ggg	4ccc 4eee	.	.	.
.	8ff#J 8fff#	.	.	.	.
*	*v	*v	*	*	*
=43	=43	=43	=43	=43
8d-X 8cc-X	8ee-XL	.	2r	.
8r	8aanJ 8eee-X	.	.	.
8G 8fn 8b	8aaL 8bb 8eeen	.	.	.
8r	8eenJ	.	.	.
=44	=44	=44	=44	=44
*	*^	*	*	*
4e 4f#X 4cc 4ee	4aa-X 4ccc 4eee 4aaa-X	4rc	.	2r	.
4aa-X 4ccc 4eee	8gggL 8gggg	4cccc 4eeee	.	.	.
.	8fff#XJ 8ffff#X	.	.	.	.
*	*v	*v	*	*	*
*clefF4	*	*	*	*
=45	=45	=45	=45	=45
8D-X 8c-X	8e-XL	.	2r	.
8r	8anJ 8ee-X	.	.	.
8GG 8Fn 8B	8aL 8b 8een	.	.	.
8r	8enJ	.	.	.
=46	=46	=46	=46	=46
*	*^	*	*	*
4E 4F#X 4c 4e	4a-X 4cc 4ee 4aa-X	4rc	.	2r	.
*clefG2	*	*	*	*	*
4a-X 4cc 4ee	8ggL 8ggg	4ccc 4eee	.	.	.
.	8ff#XJ 8fff#X	.	.	.	.
*clefF4	*	*	*	*	*
=47	=47	=47	=47	=47	=47
4EE 4C 4E	4A-X 4c 4e 4a-X	4rc	.	2r	.
4A-X 4c 4e	8gL 8gg	4cc 4ee	.	.	.
.	8f#XJ 8ff#X	.	.	.	.
*	*v	*v	*	*	*
=48	=48	=48	=48	=48
[2AAA-X [2AA-X	[2G [2c [2e [2g	.	2r	.
=49	=49	=49	=49	=49
2AAA-] 2AA-]	2G] 2c] 2e] 2g]	.	2r	.
*clefG2	*	*	*	*
=50	=50	=50	=50	=50
*^	*	*	*	*
[4cc	12ccL	8r	.	2r	.
.	12g	.	.	.	.
.	.	[8ee [8ccc	.	.	.
.	12eJ	.	.	.	.
6cc]	4A-X	4ee] 4ccc]	.	.	.
12b	.	.	.	.	.
=51	=51	=51	=51	=51	=51
2a#X	12a#L	8r	.	2r	.
.	12f#X	.	.	.	.
.	.	[8ee [8ff#X [8eee	.	.	.
.	12eJ	.	.	.	.
*clefF4	*	*	*	*	*
.	12cL	4ee] 4ff#] 4eee]	.	.	.
.	12DJ	.	.	.	.
.	12rEE	.	.	.	.
*clefG2	*	*	*	*	*
=52	=52	=52	=52	=52	=52
2b	12bL	8r	.	2r	.
.	12f#X	.	.	.	.
.	.	8ee 8ff#X 8eee	.	.	.
.	12eJ	.	.	.	.
*clefF4	*	*	*	*	*
.	12cL	8eeL 8ff# 8eee	.	.	.
.	12D	.	.	.	.
.	.	8eeJ 8ff# 8eee	.	.	.
.	12GGJ	.	.	.	.
*v	*v	*	*	*	*
*	*clefF4	*	*	*
=53	=53	=53	=53	=53
2EEE-X 2EE-X	2D 2G 2B 2d	.	2r	.
*	*clefG2	*	*	*
=54	=54	=54	=54	=54
*^	*	*	*	*
[4g	12gL	8r	.	2r	.
.	12d	.	.	.	.
.	.	[8b [8gg	.	.	.
.	12BJ	.	.	.	.
6g]	4E-X	4b] 4gg]	.	.	.
12f#X	.	.	.	.	.
=55	=55	=55	=55	=55	=55
2e#X	12e#L	8r	.	2r	.
.	12c#X	.	.	.	.
.	.	[8b [8cc#X [8bb	.	.	.
.	12BJ	.	.	.	.
.	12GL	4b] 4cc#] 4bb]	.	.	.
.	12AAJ	.	.	.	.
.	12rEE	.	.	.	.
=56	=56	=56	=56	=56	=56
2f#X	12f#L	8r	.	2r	.
.	12c#X	.	.	.	.
.	.	8b 8cc#X 8bb	.	.	.
.	12BJ	.	.	.	.
.	12GL	8bL 8cc# 8bb	.	.	.
.	12AA	.	.	.	.
.	.	8bJ 8cc# 8bb	.	.	.
.	12DDJ	.	.	.	.
*	*	*clefF4	*	*	*
=57	=57	=57	=57	=57	=57
2ryy	[2DDD-X [2DD-X	[2Cn [2Fn [2A [2cn	.	2r	.
=58	=58	=58	=58	=58	=58
12fL	4..DDD-] 4..DD-]	4..C] 4..F] 4..A] 4..c]	.	4cc 4ff 4aa 4ccc	.
12c	.	.	.	.	.
12AJ	.	.	.	.	.
8D-X	.	.	.	4r	.
8rc	.	.	.	.	.
.	16GGG 16GG	16BB 16F 16B	.	.	.
*v	*v	*	*	*	*
=59	=59	=59	=59	=59
4..EEE-X 4..EE-X	4..Dn 4..G 4..B 4..dn	.	2r	.
16AAA 16AA	16C#X 16G 16c#X	.	.	.
=60	=60	=60	=60	=60
*	*	*	*^	*
4..AAA-X 4..AA-X	2r	.	2ryy	4..G 4..cn 4..en 4..g	.
16DD 16D	.	.	.	16F#X 16c 16f#X	.
=61	=61	=61	=61	=61	=61
[2DD-X [2D-X	2r	.	2ryy	[2c [2fn [2an [2cc	.
*	*clefG2	*	*	*	*
=62	=62	=62	=62	=62	=62
4..DD 4..D-]	12ffL	.	4aa 4ccc 4fff 4aaa	4..c] 4..f] 4..a] 4..cc]	.
.	12cc	.	.	.	.
.	12aJ	.	.	.	.
.	8f	.	4raa	.	.
.	8r	.	.	.	.
16GG 16G	.	.	.	16B 16f 16b	.
=63	=63	=63	=63	=63	=63
[2EE-X [2E-X	2r	.	2ryy	[2dn [2g [2b [2ddn	.
=64	=64	=64	=64	=64	=64
4..EE-] 4..E-]	12ggL	.	4bb 4ddd 4ggg 4bbb	4..d] 4..g] 4..b] 4..dd]	.
.	12dd	.	.	.	.
.	12bJ	.	.	.	.
.	8g	.	4raa	.	.
.	8r	.	.	.	.
16AA 16A	.	.	.	16c#X 16g 16cc#X	.
*	*	*	*v	*v	*
=65	=65	=65	=65	=65
2AA-X 2A-X	2g 2ccn 2een 2gg	.	2r	.
*clefG2	*	*	*	*
=66	=66	=66	=66	=66
2e 2g 2cc 2gg	3ccc 3eee 3ggg 3cccc	.	2r	.
.	6gg 6ggg	.	.	.
=67	=67	=67	=67	=67
2r	6ee 6eee	.	2r	.
.	6b 6bb	.	.	.
.	6cc 6ccc	.	.	.
*clefF4	*	*	*	*
=68	=68	=68	=68	=68
*	*^	*	*	*
4c 4f#X 4cc	3ee 3eee	2ff#X 2ccc	.	2r	.
4D	.	.	.	.	.
.	6ee 6eee	.	.	.	.
*	*v	*v	*	*	*
=69	=69	=69	=69	=69
2AA-X 2E 2G	2c 2e 2g 2cc	.	2r	.
=70	=70	=70	=70	=70
2E 2G 2c 2g	3cc 3ee 3gg 3ccc	.	2r	.
.	6gg	.	.	.
=71	=71	=71	=71	=71
2r	6ee	.	2r	.
.	6b	.	.	.
.	6cc	.	.	.
=72	=72	=72	=72	=72
*	*^	*	*	*
2D 2A 2c	3ee	2f#X	.	2r	.
.	6ee	.	.	.	.
*	*v	*v	*	*	*
=73	=73	=73	=73	=73
2AAA-X 2AA-X	2G 2c 2e 2g	.	2r	.
*clefG2	*	*	*	*
=74	=74	=74	=74	=74
*^	*	*	*	*
[4cc	12ccL	8r	.	2r	.
.	12g	.	.	.	.
.	.	[8ee [8ccc	.	.	.
.	12eJ	.	.	.	.
6cc]	4A-X	4ee] 4ccc]	.	.	.
12b	.	.	.	.	.
=75	=75	=75	=75	=75	=75
2a#X	12a#L	8r	.	2r	.
.	12f#X	.	.	.	.
.	.	[8ee [8ff#X [8eee	.	.	.
.	12eJ	.	.	.	.
*clefF4	*	*	*	*	*
.	12cL	4ee] 4ff#] 4eee]	.	.	.
.	12DJ	.	.	.	.
.	12rEE	.	.	.	.
*clefG2	*	*	*	*	*
=76	=76	=76	=76	=76	=76
2b	12bL	8r	.	2r	.
.	12f#X	.	.	.	.
.	.	8ee 8ff#X 8eee	.	.	.
.	12eJ	.	.	.	.
*clefF4	*	*	*	*	*
.	12cL	8eeL 8ff# 8eee	.	.	.
.	12D	.	.	.	.
.	.	8eeJ 8ff# 8eee	.	.	.
.	12GGJ	.	.	.	.
*v	*v	*	*	*	*
=77	=77	=77	=77	=77
2GGG-X 2GG-X	2Fn 2B-X 2d 2fn	.	2r	.
*clefG2	*	*	*	*
=78	=78	=78	=78	=78
*^	*	*	*	*
[4b-X	12b-L	8r	.	2r	.
.	12f	.	.	.	.
.	.	[8ff [8bb-X [8fff	.	.	.
.	12dJ	.	.	.	.
6b-]	4G-X	4ff] 4bb-] 4fff]	.	.	.
12a	.	.	.	.	.
=79	=79	=79	=79	=79	=79
2g#X	12g#L	8r	.	2r	.
.	12e	.	.	.	.
.	.	[8ee [8bb-X [8eee	.	.	.
.	12dJ	.	.	.	.
*clefF4	*	*	*	*	*
.	12B-XL	4ee] 4bb-] 4eee]	.	.	.
.	12CJ	.	.	.	.
.	12rEE	.	.	.	.
*clefG2	*	*	*	*	*
=80	=80	=80	=80	=80	=80
2a	12aL	8r	.	2r	.
.	12e	.	.	.	.
.	.	8ee 8bb-X 8eee	.	.	.
.	12dJ	.	.	.	.
*clefF4	*	*	*	*	*
.	12B-XL	8eeL 8bb- 8eee	.	.	.
.	12C	.	.	.	.
.	.	8eeJ 8bb- 8eee	.	.	.
.	12FFJ	.	.	.	.
*v	*v	*	*	*	*
=81	=81	=81	=81	=81
2r	8eeL 8bb-X 8eee	.	2r	.
.	8eeJ 8bb- 8eee	.	.	.
.	8eeL 8bb- 8eee	.	.	.
.	[8eeJ [8bb- [8eee	.	.	.
=82	=82	=82	=82	=82
2r	8ee] 8bb-] 8eee]	.	2r	.
.	8r	.	.	.
.	4r	.	.	.
=83	=83	=83	=83	=83
8r	8eL	.	2r	.
8G 8c#X	8A#XJ 8a#X	.	.	.
8AA	8f#XL	.	.	.
8r	8BJ 8b	.	.	.
=84	=84	=84	=84	=84
4D-X 4G 4d-X	8.cnL 8.g 8.ccn	.	2r	.
.	16fnJk 16ffn	.	.	.
8EEE-X 8EE-X	8f-XL 8ff-X	.	.	.
8r	8GJ 8g	.	.	.
=85	=85	=85	=85	=85
4D-X 4G 4d-X	8.c-XL 8.fn 8.cc-X	.	2r	.
.	16fJk 16ff	.	.	.
8EEE-X 8EE-X	8f-XL 8ff-X	.	.	.
8r	8GJ 8g	.	.	.
=86	=86	=86	=86	=86
*	*^	*	*	*
4C 4Dn 4A-X 4c	4f-X 4a-X 4cc 4ff-X	4rc	.	2r	.
*clefG2	*	*	*	*	*
4f-X 4a-X 4cc	8ee-XL 8eee-X	4aa-X 4ccc	.	.	.
.	8ddJ 8ddd	.	.	.	.
*	*v	*v	*	*	*
*clefF4	*	*	*	*
=87	=87	=87	=87	=87
8r	8a-XL	.	2r	.
8c-X 8f	8dJ 8dd	.	.	.
8D-X	8b-XL	.	.	.
8r	8e-XJ 8ee-X	.	.	.
=88	=88	=88	=88	=88
4F 4B 4f	8.enL 8.bn 8.een	.	2r	.
.	16anJk 16aa	.	.	.
8GGG 8GG	8a-XL 8aa-X	.	.	.
8r	8BJ 8b	.	.	.
=89	=89	=89	=89	=89
4F 4B 4f	8.e-XL 8.an 8.ee-X	.	2r	.
.	16aJk 16aa	.	.	.
8GGG 8GG	8a-XL 8aa-X	.	.	.
8r	8BJ 8b	.	.	.
=90	=90	=90	=90	=90
2r	2r	.	2r	.
=91	=91	=91	=91	=91
8D-X 8c-X	8e-XL	.	2r	.
8r	8anJ 8ee-X	.	.	.
8GG 8F 8B	8aL 8b 8een	.	.	.
8r	8enJ	.	.	.
=92	=92	=92	=92	=92
4E 4F#X 4c 4e	4a-X 4cc 4ee 4aa-X	.	2r	.
*clefG2	*	*	*	*
[4a-X [4cc [4ee	8ggL 8ccc 8eee 8ggg	.	.	.
.	8ff#XJ 8fff#X	.	.	.
=93	=93	=93	=93	=93
*	*^	*	*	*
4a-] 4cc] 4ee]	8ggL 8ggg	4ccc 4eee	.	2r	.
.	8ff#XJ 8fff#X	.	.	.	.
4a-X 4cc 4ee	8ggL 8ggg	4ccc 4eee	.	.	.
.	8ff#J 8fff#	.	.	.	.
=94	=94	=94	=94	=94	=94
4a-X 4cc 4ee	8ggL 8ggg	4ccc 4eee	.	2r	.
.	8ff#XJ 8fff#X	.	.	.	.
4a- 4cc 4ee	8ggL 8ggg	4ccc 4eee	.	.	.
.	8ff#J 8fff#	.	.	.	.
*	*v	*v	*	*	*
=95	=95	=95	=95	=95
8d-X 8cc-X	8ee-XL	.	2r	.
8r	8aanJ 8eee-X	.	.	.
8G 8fn 8b	8aaL 8bb 8eeen	.	.	.
8r	8eenJ	.	.	.
=96	=96	=96	=96	=96
4e 4f#X 4cc 4ee	4aa-X 4ccc 4eee 4aaa-X	.	2r	.
4aa-X 4ccc 4eee	8gggL 8cccc 8eeee 8gggg	.	.	.
.	8fff#XJ 8ffff#X	.	.	.
*clefF4	*	*	*	*
=97	=97	=97	=97	=97
8D-X 8c-X	8e-XL	.	2r	.
8r	8anJ 8ee-X	.	.	.
8GG 8Fn 8B	8aL 8b 8een	.	.	.
8r	8enJ	.	.	.
=98	=98	=98	=98	=98
*	*^	*	*	*
4E 4F#X 4c 4e	4a-X 4cc 4ee 4aa-X	4rc	.	2r	.
*clefG2	*	*	*	*	*
4a-X 4cc 4ee	8ggL 8ggg	4ccc 4eee	.	.	.
.	8ff#XJ 8fff#X	.	.	.	.
*clefF4	*	*	*	*	*
=99	=99	=99	=99	=99	=99
4EE 4C 4E	4A-X 4c 4e 4a-X	4rc	.	2r	.
4A-X 4c 4e	8gL 8gg	4cc 4ee	.	.	.
.	8f#XJ 8ff#X	.	.	.	.
*	*v	*v	*	*	*
=100	=100	=100	=100	=100
[2AAA-X [2AA-X	[2G [2c [2e [2g	.	2r	.
=101	=101	=101	=101	=101
2AAA-_ 2AA-_	2G] 2c_ 2e_ 2g]	.	2r	.
=102	=102	=102	=102	=102
2AAA-] 2AA-]	2F#X 2c] 2e] 2f#X	.	2r	.
=103	=103	=103	=103	=103
2CCC 2CC 2GG 2E	2c 2e 2g 2cc	.	2r	.
==	==	==	==	==
*-	*-	*-	*-	*-
!!!system-decoration: {(*)}
!!!ENC: Bryan Jacob Bell
!!!END: November 2021 to April 2022
!!!PED: Günter Philipp
!!!PTL: Ausgewählte Klavierwerke (Edition Peters)
